!!!COM:	Josquin des Prez
!!!CDT:	~1450-1521/08/27
!!!OPR:	Missa La sol fa re mi
!!!ONM:	5
!!!OTL:	Agnus Dei
!!!AGN:	Mass; Agnus Dei
!!!SCT:	NJE 11.2
!!!SCA:	New Josquin Edition 11.2
!!!voices: 4
!!!voices-OPR:	4
**kern	**kern	**kern	**kern
*staff4	*staff3	*staff2	*staff1
*Ivox	*Ivox	*Ivox	*Ivox
*I"Bassus	*I"Tenor	*I"Altus	*I"Superius
*I'B	*I'T	*I'A	*I'S
*>[A,B,A]	*>[A,B,A]	*>[A,B,A]	*>[A,B,A]
*>Agnus1[A]	*>Agnus1[A]	*>Agnus1[A]	*>Agnus1[A]
*>Agnus2[B]	*>Agnus2[B]	*>Agnus2[B]	*>Agnus2[B]
*>A	*>A	*>A	*>A
*clefF4	*clefGv2	*clefGv2	*clefG2
*k[]	*k[]	*k[]	*k[]
*M3/1	*M3/1	*M3/1	*M3/1
*met(O)	*met(O)	*met(O)	*met(O)
=1-	=1-	=1-	=1-
!!section: Agnus Dei I
!!!OMD: Agnus Dei I
0.AA	0.A	[0.e	0.r
=2	=2	=2	=2
1C	1G	1e]	0.r
0D	1F	0d	.
.	1D	.	.
=3	=3	=3	=3
0.AA	0E	0c	0.a
.	[1e	1A	.
=4	=4	=4	=4
2.E\	1e]	0.B	1.g
4F\	.	.	.
1G	0d	.	.
.	.	.	2f/
1GG	.	.	1d
=5	=5	=5	=5
1.C	1c	2r	0e
.	.	2G/	.
.	0A	1.c	.
2D\	.	.	.
1F	.	.	1a
.	.	2d\	.
=6	=6	=6	=6
1E	1B	1e	0g
1C	1e	2r	.
.	.	2E/	.
[1D	[1d	2F/	1f
.	.	2D/	.
=7	=7	=7	=7
1D]	1d]	2.F/	1d
.	.	4G/	.
1AA	1c	2.A/	1e
.	.	4B\	.
1F	1A	2c\	1a
.	.	2d\	.
=8	=8	=8	=8
1E	1B	1e	0g
1C	1e	2r	.
.	.	2E/	.
1D	[1d	2F/	1f
.	.	2D/	.
=9	=9	=9	=9
1BB	1d]	2.F/	1d
.	.	4G/	.
[0AA	[0c	2.A/	0e
.	.	4B\	.
.	.	4c\	.
.	.	4d\	.
.	.	2e\	.
=10	=10	=10	=10
1AA]	1c]	2.A/	2r
.	.	.	2a/
.	.	4B\	.
2r	0A	1c	2a/
2A\	.	.	2a/
2A\	.	2r	2e/
2A\	.	2e\	2e/
=11	=11	=11	=11
2E\	0B	2e\	2.g/
2E\	.	2e\	.
.	.	.	4f/
2.G\	.	2B\	2d/
.	.	2B\	2g/
4F\	.	.	.
2D\	1r	2.d\	2f/
2G\	.	.	[2d/
.	.	4c\	.
=12	=12	=12	=12
2F\	0.r	2A/	4d/]
.	.	.	4e/
2.D\	.	2d\	4f/
.	.	.	4g/
.	.	2c\	2.a/
4E\	.	.	.
4F\	.	2.A/	.
4G\	.	.	4g/
2.A\	.	.	2e/
.	.	4B\	.
.	.	4c\	2a/
4G\	.	4d\	.
=13	=13	=13	=13
2E\	0.r	2e\	2g/
1A	.	2.c\	2.e/
.	.	4A/	4f/
2G\	.	2B\	2g/
2F\	.	2c\	1a
2D\	.	2d\	.
=14	=14	=14	=14
2E\	0.r	2B\	2g/
2A\	.	2.c\	2.e/
2G\	.	.	.
.	.	4B\	4d/
2F\	.	2.d\	2.f/
1D	.	.	.
.	.	4c\	4e/
.	.	4B\	4d/
.	.	4A/	4c/
=15	=15	=15	=15
0E	0e	2.G/	2B/
.	.	.	2.e/
.	.	4F/	.
.	.	2G/	.
.	.	.	4d/
.	.	1A	4c/
.	.	.	4A/
1r	1d	.	1B
.	.	2G#i/	.
=16	=16	=16	=16
0A	1c	2A/	2r
.	.	1e	2A/
.	1A	.	1c
.	.	2f\	.
1G	1B	1g	2.d/
.	.	.	4e/
=17	=17	=17	=17
1F	0A	1c	2f/
.	.	.	2c/
1D	.	1d	1f
1E	1G	1B	1g
=18	=18	=18	=18
0A	1F	1c	2.a/
.	.	.	4f/
.	1D	1d	1f
1G	1E	1B	1g
=19	=19	=19	=19
1F	0A	1c	2r
.	.	.	2c/
1D	.	1d	1f
1E	1G	1B	1g
=20	=20	=20	=20
0A	1F	1c	2.a/
.	.	.	4g/
.	1D	1d	4f/
.	.	.	4d/
.	.	.	2f/
1G	1E	2B\	2e/
.	.	[2e\	2b\
=21	=21	=21	=21
1F	0.r	4e\]	2cc\
.	.	4d\	.
.	.	2.f\	2.dd\
1D	.	.	.
.	.	4e\	4cc\
.	.	4d\	4b\
.	.	4c\	4a/
2E\	.	2B\	2g/
[2A\	.	[2c\	2a/
=22	=22	=22	=22
2A\]	0.r	4c\]	2e/
.	.	4d\	.
2G\	.	2.e\	2b\
1F	.	.	2cc\
.	.	4d\	.
.	.	2.f\	2.dd\
1D	.	.	.
.	.	4e\	4cc\
.	.	4d\	4b\
.	.	4c\	4a/
=23	=23	=23	=23
1E	2r	1B	0g
.	1e	.	.
1G	.	2r	.
.	2d\	2B\	.
1A	2c\	4c\	2r
.	.	4A/	.
.	2A/	4c\	2e/
.	.	4d\	.
=24	=24	=24	=24
1E	1B	0e	2g/
.	.	.	2e/
2r	2r	.	2.g/
2C/	1e	.	.
.	.	.	4a/
1G	.	2r	1b
.	2d\	2B\	.
=25	=25	=25	=25
1A	2c\	4c\	2r
.	.	4A/	.
.	2A/	4c\	2e/
.	.	4d\	.
1E	1B	1e	2g/
.	.	.	2e/
2r	2r	2r	2.g/
2C/	[2e\	2g\	.
.	.	.	4a/
=26	=26	=26	=26
2.G\	2e\]	2g\	4b\
.	.	.	4cc\
.	2.d\	2g\	2.b\
4F\	.	.	.
2D\	.	2f\	.
.	4c\	.	4a/
2F\	2A/	2d\	2a/
2E\	2B\	2e\	2g/
2C/	[2e\	2g\	[2cc\
=27	=27	=27	=27
2.G\	2e\]	2g\	4cc\]
.	.	.	4b\
.	2.d\	2g\	2.b\
4F\	.	.	.
2D\	.	2f\	.
.	4c\	.	4a/
2F\	2A/	2d\	2.a/
1E	1B	1e	.
.	.	.	4g#i/
.	.	.	4g#i/
.	.	.	4f#i/
=28	=28	=28	=28
0.AAl	0.Al	0.el	0.al
!!LO:LB:i:g=z
!!LO:TX:rj:i:t=fine
=29||	=29||	=29||	=29||
*>B	*>B	*>B	*>B
*clefF4	*clefGv2	*clefGv2	*clefG2
*k[]	*k[]	*k[]	*k[]
*M3/1	*M3/1	*M3/1	*M3/1
*met(O)	*met(O)	*met(O)	*met(O)
!!!OMD: Agnus Dei II
!!section: Agnus Dei II
0.r	0.r	[0.e	0b
.	.	.	1cc
=30	=30	=30	=30
0.r	0.r	0e]	2b\
.	.	.	2.cc\
.	.	.	4b\
.	.	.	2g/
.	.	1d	2a/
.	.	.	2b\
=31	=31	=31	=31
0.r	0.r	1.c	1e
.	.	.	1r
.	.	2A/	.
.	.	1B	1g
=32	=32	=32	=32
0.r	0.r	1r	2a/
.	.	.	1b
.	.	[0e	.
.	.	.	2cc\
.	.	.	2b\
.	.	.	[2cc\
=33	=33	=33	=33
0.r	0.r	0e]	2cc\]
.	.	.	4b\
.	.	.	4a/
.	.	.	2g/
.	.	.	2c/
.	.	1d	2d/
.	.	.	2f/
=34	=34	=34	=34
0.r	0.r	1.c	1e
.	.	.	1r
.	.	2A/	.
.	.	1B	1g
=35	=35	=35	=35
0.r	0.r	2r	2a/
.	.	2e\	2g/
.	.	2d\	2a/
.	.	2c\	1cc
.	.	1A	.
.	.	.	4b\
.	.	.	4a/
=36	=36	=36	=36
0.r	0.r	2B\	1g
.	.	2.e\	.
.	.	.	1c
.	.	4d\	.
.	.	2c\	.
.	.	2A/	2r
.	.	2B\	2g/
=37	=37	=37	=37
0.r	0.r	2r	2a/
.	.	2.e\	1g
.	.	4d\	.
.	.	2c\	2e/
.	.	2A/	2f/
.	.	2B\	[2g/
=38	=38	=38	=38
0.r	0.r	1e	2g/]
.	.	.	2cc\
.	.	2d\	2b\
.	.	2c\	2.a/
.	.	2A/	.
.	.	.	4g/
.	.	2B\	[2g/
=39	=39	=39	=39
0.r	0.r	2e\	2g/]
.	.	2.d\	2f/
.	.	.	2e/
.	.	4c\	.
.	.	2A/	2c/
.	.	1B	1d
=40	=40	=40	=40
0.r	0.r	1e	2r
.	.	.	2c/
.	.	2d\	2d/
.	.	2c\	2.e/
.	.	2A/	.
.	.	.	4c/
.	.	2B\	2d/
=41	=41	=41	=41
0.r	0.r	2r	2e/
.	.	2e\	2c/
.	.	2d\	2d/
.	.	2c\	2e/
.	.	2A/	2f/
.	.	2B\	[2g/
=42	=42	=42	=42
0.r	0.r	1e	2g/]
.	.	.	2c/
.	.	2d\	2d/
.	.	2c\	2e/
.	.	2A/	2f/
.	.	2B\	2g/
=43	=43	=43	=43
0.r	0.r	2r	2a/
.	.	2e\	2c/
.	.	2d\	2d/
.	.	2c\	2e/
.	.	2A/	2f/
.	.	2B\	2g/
=44	=44	=44	=44
0.r	0.r	2r	2a/
.	.	1e	2b\
.	.	.	2cc\
.	.	2d\	2.b\
.	.	2c\	.
.	.	.	4a/
.	.	2A/	[2a/
=45	=45	=45	=45
0.r	0.r	2B\	2a/]
.	.	1e	2g/
.	.	.	1f
.	.	2d\	.
.	.	2c\	1e
.	.	2A/	.
=46	=46	=46	=46
0.r	0.r	2B\	2d/
.	.	1e	2c/
.	.	.	1B
.	.	2d\	.
.	.	4c\	2A/
.	.	4A/	.
.	.	2B\	2d/
=47	=47	=47	=47
0.r	0.r	2e\	2c/
.	.	2d\	2f/
.	.	2c\	2e/
.	.	2A/	2a/
*	*	*M3/1	*
*	*	*met(3)	*
.	.	3B\	2g/
.	.	3.e\	.
.	.	.	[2cc\
.	.	6d\	.
=48	=48	=48	=48
0.r	0.r	3%2d	4cc\]
.	.	.	4b\
.	.	.	1a
.	.	3c\	.
.	.	3A/	.
.	.	3%2B	.
.	.	.	2g#i/
.	.	3%2.A	1a
!LO:TX:i:Y=40:rj:t=Tertius Agnus ut supra	!	!	!
=||	=||	=||	=||
*-	*-	*-	*-
!!!RDF**kern: l=long note in original notation
!!!RDF**kern: i=editorial accidental
!!!ENC: Jesse Rodin; Victoria Chang 2011/05/10
!!!END: 2011/05/10/
!!!EED:	Jesse Rodin
!!!EEV: 2012/04/24/
!!attribution-level@Jos: 1 (secure)
!!!ONB:	Translated from MusicXML and edited on 2011/09/19/ by Craig Sapp
!!muse2ps: T^@{OPR}^u^@{ONM}{. }@{OTL}^C^@{COM}\n@{SCT}^i2I100v85,90,85,150c100Q16
